usr/share/icons/biglinux-icons-material-dark/22/devices/network-rj45-female.svg

<svg width="22" height="22" version="1.1" xmlns="http://www.w3.org/2000/svg">
 <style id="current-color-scheme" type="text/css">.ColorScheme-Text {
            color:#dedede;
        }</style>
 <path class="ColorScheme-Text" d="m4 4c-1.108 0-2 0.892-2 2v10c0 1.108 0.892 2 2 2h14c1.108 0 2-0.892 2-2v-10c0-1.108-0.892-2-2-2zm-1 2 1-1v2h1v-2h1v2h1v-2h1v2h1v-2h4v2h1v-2h1v2h1v-2h1v2h1v-2l1 1v8h-3v1h-2v2h-6v-2h-2v-1h-3z" fill="currentColor"/>
</svg>

<svg xmlns="http://www.w3.org/2000/svg" width="22" height="22">
<style id="current-color-scheme" type="text/css">
.ColorScheme-Text{color:#dedede}
</style>
<path fill="currentColor" d="M4 4c-1.108 0-2 .892-2 2v10c0 1.108.892 2 2 2h14c1.108 0 2-.892 2-2V6c0-1.108-.892-2-2-2zM3 6l1-1v2h1V5h1v2h1V5h1v2h1V5h4v2h1V5h1v2h1V5h1v2h1V5l1 1v8h-3v1h-2v2H8v-2H6v-1H3z" class="ColorScheme-Text"/>
</svg>
